!!!SOCIAL_FUNCTION:	songs connected with legends
!!!PDT:	1939
!!!OTL: No_110_Song_to_Bring_Rain.krn
!!!LANG: Non-Tone
!!!LING_GROUP: Wakashan
!!!REG: Pacific Northwest
**kern
*staff1
=1-
*clefF4
*k[f#]
*M2/4
4r
8A\L
16A\L
16G\JJ
=2
[2A\
=3
4A\_
8A\L]
16G\Jk
16r
=4
8A\L
16A\L
16G\JJ
8A\L
8G\J
=5
8A\L
8G\J
8G\L
8G\J
=6
12E\L
12D\
12D\J
[4D\
=7
4D\]
8D\
8r
=8
8A\L
16A\L
16G\JJ
8A\L
8G\J
=9
8A\L
8G\J
8G\L
8G\J
=10
12E\L
12D\
12D\J
[4D\
=11
4D\]
8D\
8r
=12
8G\L
16E\L
16E\JJ
[4E\
=13
8E\L]
16G\L
16E\JJ
8D\
8r
=14
8G\L
16E\L
16E\JJ
8E\L
16D\Jk
16r
=15
4E\
8E\L
8E\J
=16
2E\
==
*-
